X: 29
T: St. Anne's Reel
M:C|
P: french-canadian
L:1/8
R:reel
K:D
de|"D"fedf "A"edcB|"D"A2 FA DAFA|"G"B2GB EBGB|"D"A2 FA DAFA|
"D"fedf "A"edcB|"D"A2 FA DAFA|"G"BGBd "A"cAce|"D"eddc d2:|
de|"D"f2fg fedc|"G"Bggf~g2gf|"A"edcB Aceg|"E"baa^g "A"aba=g|
"D"f2fg fedc|"G"Bggf~g2gf|"A"edcB ABcd|"D"eddc d2:||


